X:1
T:Title
%%score { ( 1 4 ) | ( 2 3 ) }
L:1/8
M:6/8
K:Bb
V:1 treble nm="Grand Piano"
V:4 treble 
V:2 bass 
V:3 bass 
V:1
 z3 z2[Q:1/4=84] [DF] | [DF][Fd][Ec] [DB][DA][DB] | [B,D]2 [DG] [DG]2 [DB] | A3 G2 F | %4
[M:5/8] [Fd]-[Fd]- [Fd]3 |[M:1/8] [DF] |[M:3/4] [DF][Fd] [Ec][DB] [DA][DB] | %7
 [B,D]2 [DG] [DG]2 [Fd] | [=Ec]3 E3 |[M:5/8] F-F- F3 |[M:1/8] F |[M:3/4] F[Ae] [Ae][Ae] [EG][EA] | %12
 [Ec]2 [DB] [DB]2 [DF] | [EG][EG] [FA] [GB]2 [Gc] |[M:5/8] [^Fd]-[Fd]- [Fd]3 |[M:1/8] [Fd] | %16
[M:3/4] [Fd][Ec] [DB][Fd] [Fc][FB] | [GB]2 [EG] [DF]2 [FB] | [Fd]3 [Ec]3 | [DB]6 | [Fd]3 .[DF]3 | %21
 A6 | e3 .[EG]3 |[M:5/8] F-F- F3 |[M:1/8] [DF] |[M:3/4] [DF][DG] [DA][DB] [Ec][DB] | %26
 [Fd]2 [_Ad] [Ge]2 [Ge] | d3 c3 |[M:5/8] B-B- B3 |] %29
V:2
 z3 z2 [B,,B,] | [B,,B,][B,,B,][B,,B,] [B,,F,][B,,F,][B,,F,] | [B,,F,]2 [B,,B,] [B,,B,]2 [B,,B,] | %3
 [F,CE]3 [F,E]2- [F,A,E] |[M:5/8] [B,,B,]-[B,,B,]- [B,,B,]3 |[M:1/8] [B,,B,] | %6
[M:3/4] [B,,B,][B,,B,] [B,,B,][B,,F,] [B,,F,][B,,F,] | [B,,F,]2 [B,,B,] [B,,B,]2 [B,,B,] | %8
 [C,G,]3 [C,B,C]3 |[M:5/8] [A,C]2 z z2 |[M:1/8] [F,A,E] | %11
[M:3/4] [F,A,E][F,C] [F,C][F,C] [F,C][F,C] | [B,,B,]2 [B,,F,] [B,,F,]2 [B,,B,] | %13
 [E,B,][E,B,] [E,C] [E,B,]2 [E,G,] |[M:5/8] [D,A,]-[D,A,]- [D,A,]3 |[M:1/8] [B,,B,] | %16
[M:3/4] [B,,B,][B,,B,] [B,,B,][B,,B,] [C,A,][D,B,] | [E,B,]2 [E,B,] [B,,B,]2 [D,B,] | %18
 [F,B,]3 [F,A,]3 | [B,,B,]6 | [B,,B,]B,, B,,B,, B,,[B,,B,] | [F,CE][F,C] [F,C] .[F,C]3 | F4 z2 | %23
[M:5/8] [B,,B,][D,B,][F,B,] B,2 |[M:1/8] [B,,B,] | %25
[M:3/4] [B,,B,][B,,B,] [B,,B,][B,,F,] [B,,F,][B,,F,] | [B,,B,]2 [B,,B,] [E,B,]2 [E,B,] | %27
 [F,B,F][F,B,] [F,B,][F,A,E] [F,A,][F,A,] |[M:5/8] z A,G, F,2 |] %29
V:3
 x6 | x6 | x6 | z3 .B,3 |[M:5/8] x5 |[M:1/8] x |[M:3/4] x6 | x6 | x6 |[M:5/8] F,2- [F,-B,] [F,C]2 | %10
[M:1/8] x |[M:3/4] x6 | x6 | x6 |[M:5/8] x5 |[M:1/8] x |[M:3/4] x6 | x6 | x6 | x6 | x6 | x6 | %22
 [F,A,]F, F,F, F,[F,C] |[M:5/8] x5 |[M:1/8] x |[M:3/4] x6 | x6 | x6 |[M:5/8] B,,-B,,- B,,3 |] %29
V:4
 x6 | x6 | x6 | x6 |[M:5/8] x5 |[M:1/8] x |[M:3/4] x6 | x6 | x6 |[M:5/8] z2 D E2 |[M:1/8] x | %11
[M:3/4] x6 | x6 | x6 |[M:5/8] x5 |[M:1/8] x |[M:3/4] x6 | x6 | x6 | x6 | z B, B,B, B,B | %21
 z E E .E3 | z A, A,C CA |[M:5/8] DDD D2 |[M:1/8] x |[M:3/4] x6 | x6 | z F .F2 EE | %28
[M:5/8] [B,D]FE D2 |] %29

